src/assets/icons/weeks,simple,09.svg

<svg width="48" height="48" viewBox="0 0 48 48" fill="none" xmlns="http://www.w3.org/2000/svg">
<rect opacity="0.2" x="5" y="5" width="38" height="38" rx="4" fill="black"/>
<path d="M5 13C5 9.22876 5 7.34315 6.17157 6.17157C7.34315 5 9.22876 5 13 5H35C38.7712 5 40.6569 5 41.8284 6.17157C43 7.34315 43 9.22876 43 13V15H5V13Z" fill="black"/>
<path d="M23.8082 20.3068C19.9048 20.2898 17.2713 22.8466 17.2884 26.358C17.2969 29.6136 19.5554 31.9744 22.6491 31.9744C24.5668 31.9744 26.2713 31.0455 27.0469 29.5114H27.1662C27.1577 32.9716 25.956 35.0767 23.6804 35.0767C22.3423 35.0767 21.3793 34.3438 21.098 33.0739H17.4588C17.7997 36.0142 20.1861 38.2386 23.6804 38.2386C28.0014 38.2386 30.7884 34.7443 30.7798 28.821C30.7713 22.4972 27.3963 20.3239 23.8082 20.3068ZM23.8338 23.2045C25.5298 23.2045 26.7827 24.5852 26.7997 26.2472C26.8082 27.9176 25.4872 29.2983 23.7997 29.2983C22.0952 29.2983 20.8764 27.9688 20.8679 26.2557C20.8509 24.5511 22.1207 23.2045 23.8338 23.2045Z" fill="black"/>
</svg>

<svg xmlns="http://www.w3.org/2000/svg" width="48" height="48" fill="none" viewBox="0 0 48 48">
  <rect width="38" height="38" x="5" y="5" fill="#000" opacity=".2" rx="4"/>
  <path fill="#000" d="M5 13c0-3.771 0-5.657 1.172-6.828C7.343 5 9.229 5 13 5h22c3.771 0 5.657 0 6.828 1.172C43 7.343 43 9.229 43 13v2H5v-2zM23.808 20.307c-3.903-.017-6.537 2.54-6.52 6.051.009 3.256 2.267 5.616 5.361 5.616 1.918 0 3.622-.928 4.398-2.463h.12c-.01 3.46-1.211 5.566-3.487 5.566-1.338 0-2.3-.733-2.582-2.003h-3.64c.342 2.94 2.728 5.165 6.222 5.165 4.321 0 7.108-3.495 7.1-9.418-.009-6.324-3.384-8.497-6.972-8.514zm.026 2.898c1.696 0 2.949 1.38 2.966 3.042.008 1.67-1.313 3.051-3 3.051-1.705 0-2.924-1.33-2.932-3.042-.017-1.705 1.253-3.052 2.966-3.052z"/>
</svg>
